X: 16
T: When Sick Is It Tea You Want?   #2
%S: s:2 b:10(6+4)
B: Francis O'Neill: "The Dance Music of Ireland" (1907) #16
R: double jig
Z: Frank Nordberg - http://www.musicaviva.com
F: http://www.musicaviva.com/abc/tunes/ireland/oneill-1001/0016/oneill-1001-0016-1.abc
N: Compacted via repeats and multiple endings [JC]
N: Compacted by using labels and play order [JC]
P: Play A1A2x2 + BA2x2
M: 6/8
L: 1/8
K: D
"^A"|: Add dcB | ABA AFA |[1,3 Add d2e | fdB B2A :|[2,4 dfd ege |
| fdd d2 "^fine"z "^B":: afd dcd | BGG G2g | bge ede | cAA A2"^->A2"A |]
